!!!COM: Beethoven
!!!OTL: 9 Variationen uber "Quant' e piu bello" von G. Paisiello
!!!Variation: Variation 2 b2
**function	**harm	**kern	**kern
*	*	*clefF4	*clefG2
*	*	*k[f#c#g#]	*k[f#c#g#]
*M2/4	*M2/4	*M2/4	*M2/4
*A:	*A:	*A:	*A:
8T	F#:maj	8r	8ee
=65	=65	=65	=65
2T	F#:maj/3	8C#L 8E 8A	16ddd#LL
.	.	.	16eee
.	.	8C#J 8E 8A	16ddd#
.	.	.	16eeeJJ
.	.	8C#L 8E 8A	16ddd#LL
.	.	.	16eee
.	.	8C#J 8E 8A	16ddd#
.	.	.	16eeeJJ
=66	=66	=66	=66
2T	C#:7/5	4BB 4E 4G#	16dddLL
.	.	.	16ccc#
.	.	.	16bb
.	.	.	16aaJJ
.	.	4r	16gg#LL
.	.	.	16ff#
.	.	.	16ee
.	.	.	16ddJJ
=67	=67	=67	=67
2T	F#:maj	8AAL 8E	16cc#LL
.	.	.	16ee
.	.	8AAJ 8E	16dd#
.	.	.	16eeJJ
.	.	8AAL 8E	16dd#LL
.	.	.	16ee
.	.	8AAJ 8E	16dd#
.	.	.	16eeJJ
=68	=68	=68	=68
2T	C#:7/3	4GG# 4E	16ddLL
.	.	.	16cc#
.	.	.	16b
.	.	.	16aJJ
.	.	4r	16g#LL
.	.	.	16f#
.	.	.	16e
.	.	.	16dJJ
=69	=69	=69	=69
4T	F#:maj	8AA	16c#LL
.	.	.	16d
.	.	4A	16e
.	.	.	16f#JJ
4T	E#:dim	.	16g#LL
.	.	.	16a
.	.	[8G#	16b
.	.	.	16cc#JJ
=70	=70	=70	=70
4T	B:maj/3	8G#L]	16ddLL
.	.	.	16ee
.	.	8F#'J	16ff#
.	.	.	16gg#JJ
4T	B:maj	8E'L	16aaLL
.	.	.	16bb
.	.	8D'J	16ccc#
.	.	.	16dddJJ
=71	=71	=71	=71
4T	F#:maj/3	8C#'L	8eeeL
.	.	8D'J	8eeeJ
8D	F#:maj/5	8E'L	8r
8D	C#:7	8EE'J	8dd 8gg#
=72	=72	=72	=72
4.T	F#:maj	8AAL	4cc# 4aa
.	.	8EEJ	.
.	.	8AAA	8r
*-	*-	*-	*-
!!!EMD: Edited in humdrumR 0.7.0.3 on 2024-01-19
